breeze-extended/preferences/22/preferences-desktop-screensaver.svg

<?xml version="1.0" encoding="UTF-8" standalone="no"?>
<svg
   height="22"
   viewBox="0 0 22 22.000001"
   width="22"
   version="1.1"
   id="svg84"
   sodipodi:docname="preferences-desktop-screensaver.svg"
   inkscape:version="1.1.1 (3bf5ae0d25, 2021-09-20)"
   xmlns:inkscape="http://www.inkscape.org/namespaces/inkscape"
   xmlns:sodipodi="http://sodipodi.sourceforge.net/DTD/sodipodi-0.dtd"
   xmlns:xlink="http://www.w3.org/1999/xlink"
   xmlns="http://www.w3.org/2000/svg"
   xmlns:svg="http://www.w3.org/2000/svg">
  <defs
     id="defs88" />
  <sodipodi:namedview
     id="namedview86"
     pagecolor="#ffffff"
     bordercolor="#666666"
     borderopacity="1.0"
     inkscape:pageshadow="2"
     inkscape:pageopacity="0.0"
     inkscape:pagecheckerboard="0"
     showgrid="false"
     inkscape:zoom="46.73333"
     inkscape:cx="11.415835"
     inkscape:cy="10.474323"
     inkscape:window-width="1853"
     inkscape:window-height="1049"
     inkscape:window-x="67"
     inkscape:window-y="31"
     inkscape:window-maximized="1"
     inkscape:current-layer="g82" />
  <linearGradient
     id="a"
     gradientUnits="userSpaceOnUse"
     x1="9.710111"
     x2="16.78154"
     y1="7.142858"
     y2="14.214287">
    <stop
       offset="0"
       stop-color="#292c2f"
       id="stop2" />
    <stop
       offset="1"
       stop-opacity="0"
       id="stop4" />
  </linearGradient>
  <linearGradient
     id="b"
     gradientUnits="userSpaceOnUse"
     x1="8"
     x2="8"
     y1="13"
     y2="5">
    <stop
       offset="0"
       stop-color="#eff0f1"
       id="stop7" />
    <stop
       offset="1"
       stop-color="#fcfcfc"
       id="stop9" />
  </linearGradient>
  <linearGradient
     id="c"
     gradientTransform="matrix(.39062485 0 0 .34374986 -148.59816 -170.55548)"
     gradientUnits="userSpaceOnUse"
     x1="418.16971"
     x2="384.57144"
     y1="503.07938"
     y2="531.45813">
    <stop
       offset="0"
       stop-color="#1abc9c"
       id="stop12" />
    <stop
       offset="1"
       stop-color="#2980b9"
       id="stop14" />
  </linearGradient>
  <linearGradient
     id="d"
     gradientTransform="matrix(.39062485 0 0 .34374986 -148.59816 -170.55548)"
     gradientUnits="userSpaceOnUse"
     x1="404.0452"
     x2="430.73611"
     y1="521.63281"
     y2="528.35034">
    <stop
       offset="0"
       stop-color="#cc4a5e"
       id="stop17" />
    <stop
       offset="1"
       stop-color="#aa478a"
       id="stop19" />
  </linearGradient>
  <linearGradient
     id="e"
     gradientTransform="matrix(.39062485 0 0 .34374986 -148.59816 -170.55548)"
     gradientUnits="userSpaceOnUse"
     x1="398.09201"
     x2="394.00299"
     xlink:href="#f"
     y1="542.22382"
     y2="524.89966" />
  <linearGradient
     id="f">
    <stop
       offset="0"
       stop-color="#334545"
       id="stop23" />
    <stop
       offset="1"
       stop-color="#536161"
       id="stop25" />
  </linearGradient>
  <linearGradient
     id="g"
     gradientTransform="matrix(-.39062483 0 0 .34374984 179.19187 -184.30547)"
     gradientUnits="userSpaceOnUse"
     x1="431.57141"
     x2="439.57141"
     xlink:href="#f"
     y1="568.79803"
     y2="562.79803" />
  <linearGradient
     id="h"
     gradientTransform="matrix(-.39062485 0 0 .34374986 179.19189 -184.30548)"
     gradientUnits="userSpaceOnUse"
     x1="406.53735"
     x2="423.31955"
     xlink:href="#f"
     y1="581.87024"
     y2="572.67786" />
  <linearGradient
     id="i"
     gradientTransform="matrix(-.39062485 0 0 .34374986 179.19189 -184.30548)"
     gradientUnits="userSpaceOnUse"
     x1="423.05438"
     x2="431.22452"
     xlink:href="#f"
     y1="572.33411"
     y2="566.76562" />
  <linearGradient
     id="j"
     gradientTransform="matrix(-.39062485 0 0 .34374986 179.19189 -184.30548)"
     gradientUnits="userSpaceOnUse"
     x1="431.3129"
     x2="440.63208"
     xlink:href="#f"
     y1="577.10217"
     y2="571.44531" />
  <linearGradient
     id="k"
     gradientTransform="matrix(-.39062485 0 0 .34374986 179.19189 -184.30548)"
     gradientUnits="userSpaceOnUse"
     x1="430.56738"
     x2="423.74994"
     xlink:href="#f"
     y1="577.36243"
     y2="591.32782" />
  <linearGradient
     id="l"
     gradientTransform="matrix(.62500129 0 0 .78947505 -241.2327 -408.36755)"
     gradientUnits="userSpaceOnUse"
     x2="0"
     y1="538.79797"
     y2="519.79797">
    <stop
       offset="0"
       stop-color="#2a2c2f"
       id="stop33" />
    <stop
       offset="1"
       stop-color="#424649"
       id="stop35" />
  </linearGradient>
  <linearGradient
     id="m"
     gradientTransform="matrix(.66666658 0 0 .50000001 -256.04766 -252.39899)"
     gradientUnits="userSpaceOnUse"
     x2="0"
     y1="542.79797"
     y2="538.79797">
    <stop
       offset="0"
       stop-color="#c6cdd1"
       id="stop38" />
    <stop
       offset="1"
       stop-color="#e0e5e7"
       id="stop40" />
  </linearGradient>
  <linearGradient
     id="n"
     gradientUnits="userSpaceOnUse"
     x1="6.78569"
     x2="17.714262"
     y1="3.285716"
     y2="14.214288">
    <stop
       offset="0"
       id="stop43" />
    <stop
       offset="1"
       stop-opacity="0"
       id="stop45" />
  </linearGradient>
  <path
     d="m.999997 2.000005h19.999996v15.000016h-19.999996z"
     fill="url(#l)"
     stroke-width=".638443"
     id="path48" />
  <path
     d="m9.000006 16.99999h4v2h-4z"
     fill="url(#m)"
     stroke-width=".577351"
     id="path50" />
  <path
     d="m7.000003 19.000013h8v1h-8z"
     fill="#99a1a7"
     stroke-width=".816499"
     id="path52" />
  <path
     d="m1.9999982 13.999998 3.0000021 3.000002h16.0000007v-12.9999986l-1.000003-1.0000029z"
     fill="url(#n)"
     fill-rule="evenodd"
     opacity=".2"
     stroke-width=".642857"
     id="path54" />
  <g
     transform="matrix(.95999999 0 0 1.0666667 .440004 .199995)"
     id="g76">
    <path
       d="m1.6249958 2.625005v11.25h18.7500002v-11.25z"
       fill="url(#c)"
       stroke-width=".625"
       id="path56" />
    <g
       stroke-linecap="round"
       stroke-width="1.25"
       id="g74">
      <path
         d="m20.374996 2.625005-12.9039416 6.5559375 9.2393356 4.6940625h3.664606z"
         fill="url(#d)"
         id="path58" />
      <path
         d="m7.4843712 9.156005-5.8593754 2.977312v1.741688h15.1727852z"
         fill="url(#e)"
         id="path60" />
      <path
         d="m10.710349 10.795255-3.2259828-1.639v3.278063z"
         fill="url(#g)"
         id="path62" />
      <path
         d="m13.936342 12.43363v1.441375h2.83647z"
         fill="url(#h)"
         id="path64" />
      <path
         d="m10.710358 10.795193v3.079812h.390347l2.835638-1.440687z"
         fill="url(#i)"
         id="path66" />
      <path
         d="m7.4843712 12.434318v1.440687h2.8356378z"
         fill="url(#j)"
         id="path68" />
      <path
         d="m13.936342 12.43363-2.83647 1.441375h2.83647z"
         fill="url(#k)"
         id="path70" />
      <path
         d="m7.4710612 9.1810675 12.9039318-6.5560625-.000007 3.20275z"
         fill="#aa478a"
         id="path72" />
    </g>
  </g>
  <g
     transform="translate(0,-1)"
     id="g82">
    <path
       d="M 12,6.1992188 10,7 9,9 10,10 H 8 v 4 l 1.566406,2 H 20 v -1.800781 z"
       fill="url(#a)"
       opacity="0.2"
       stroke-width="0.642857"
       id="path78"
       sodipodi:nodetypes="cccccccccc" />
    <path
       id="path80"
       style="fill:url(#b)"
       d="M 11,5 C 9.8954305,5 9,5.8954305 9,7 v 1 h 1 V 7 c 0,-0.5522847 0.447715,-1 1,-1 0.552285,0 1,0.4477153 1,1 V 9 H 8 v 4 h 6 V 9 H 13 V 7 C 13,5.8954305 12.104569,5 11,5 Z m -2,5 h 4 v 2 H 9 Z"
       transform="translate(0,1)" />
  </g>
</svg>

<svg height="22" viewBox="0 0 22 22.000001" width="22" xmlns="http://www.w3.org/2000/svg" xmlns:xlink="http://www.w3.org/1999/xlink"><linearGradient id="a" gradientUnits="userSpaceOnUse" x1="9.710111" x2="16.78154" y1="7.142858" y2="14.214287"><stop offset="0" stop-color="#292c2f"/><stop offset="1" stop-opacity="0"/></linearGradient><linearGradient id="b" gradientUnits="userSpaceOnUse" x1="8" x2="8" y1="13" y2="5"><stop offset="0" stop-color="#eff0f1"/><stop offset="1" stop-color="#fcfcfc"/></linearGradient><linearGradient id="c" gradientTransform="matrix(.39062485 0 0 .34374986 -148.59816 -170.55548)" gradientUnits="userSpaceOnUse" x1="418.16971" x2="384.57144" y1="503.07938" y2="531.45813"><stop offset="0" stop-color="#1abc9c"/><stop offset="1" stop-color="#2980b9"/></linearGradient><linearGradient id="d" gradientTransform="matrix(.39062485 0 0 .34374986 -148.59816 -170.55548)" gradientUnits="userSpaceOnUse" x1="404.0452" x2="430.73611" y1="521.63281" y2="528.35034"><stop offset="0" stop-color="#cc4a5e"/><stop offset="1" stop-color="#aa478a"/></linearGradient><linearGradient id="e" gradientTransform="matrix(.39062485 0 0 .34374986 -148.59816 -170.55548)" gradientUnits="userSpaceOnUse" x1="398.09201" x2="394.00299" xlink:href="#f" y1="542.22382" y2="524.89966"/><linearGradient id="f"><stop offset="0" stop-color="#334545"/><stop offset="1" stop-color="#536161"/></linearGradient><linearGradient id="g" gradientTransform="matrix(-.39062483 0 0 .34374984 179.19187 -184.30547)" gradientUnits="userSpaceOnUse" x1="431.57141" x2="439.57141" xlink:href="#f" y1="568.79803" y2="562.79803"/><linearGradient id="h" gradientTransform="matrix(-.39062485 0 0 .34374986 179.19189 -184.30548)" gradientUnits="userSpaceOnUse" x1="406.53735" x2="423.31955" xlink:href="#f" y1="581.87024" y2="572.67786"/><linearGradient id="i" gradientTransform="matrix(-.39062485 0 0 .34374986 179.19189 -184.30548)" gradientUnits="userSpaceOnUse" x1="423.05438" x2="431.22452" xlink:href="#f" y1="572.33411" y2="566.76562"/><linearGradient id="j" gradientTransform="matrix(-.39062485 0 0 .34374986 179.19189 -184.30548)" gradientUnits="userSpaceOnUse" x1="431.3129" x2="440.63208" xlink:href="#f" y1="577.10217" y2="571.44531"/><linearGradient id="k" gradientTransform="matrix(-.39062485 0 0 .34374986 179.19189 -184.30548)" gradientUnits="userSpaceOnUse" x1="430.56738" x2="423.74994" xlink:href="#f" y1="577.36243" y2="591.32782"/><linearGradient id="l" gradientTransform="matrix(.62500129 0 0 .78947505 -241.2327 -408.36755)" gradientUnits="userSpaceOnUse" x2="0" y1="538.79797" y2="519.79797"><stop offset="0" stop-color="#2a2c2f"/><stop offset="1" stop-color="#424649"/></linearGradient><linearGradient id="m" gradientTransform="matrix(.66666658 0 0 .50000001 -256.04766 -252.39899)" gradientUnits="userSpaceOnUse" x2="0" y1="542.79797" y2="538.79797"><stop offset="0" stop-color="#c6cdd1"/><stop offset="1" stop-color="#e0e5e7"/></linearGradient><linearGradient id="n" gradientUnits="userSpaceOnUse" x1="6.78569" x2="17.714262" y1="3.285716" y2="14.214288"><stop offset="0"/><stop offset="1" stop-opacity="0"/></linearGradient><path d="m.999997 2.000005h19.999996v15.000016h-19.999996z" fill="url(#l)" stroke-width=".638443"/><path d="m9.000006 16.99999h4v2h-4z" fill="url(#m)" stroke-width=".577351"/><path d="m7.000003 19.000013h8v1h-8z" fill="#99a1a7" stroke-width=".816499"/><path d="m1.9999982 13.999998 3.0000021 3.000002h16.0000007v-12.9999986l-1.000003-1.0000029z" fill="url(#n)" fill-rule="evenodd" opacity=".2" stroke-width=".642857"/><g transform="matrix(.95999999 0 0 1.0666667 .440004 .199995)"><path d="m1.6249958 2.625005v11.25h18.7500002v-11.25z" fill="url(#c)" stroke-width=".625"/><g stroke-linecap="round" stroke-width="1.25"><path d="m20.374996 2.625005-12.9039416 6.5559375 9.2393356 4.6940625h3.664606z" fill="url(#d)"/><path d="m7.4843712 9.156005-5.8593754 2.977312v1.741688h15.1727852z" fill="url(#e)"/><path d="m10.710349 10.795255-3.2259828-1.639v3.278063z" fill="url(#g)"/><path d="m13.936342 12.43363v1.441375h2.83647z" fill="url(#h)"/><path d="m10.710358 10.795193v3.079812h.390347l2.835638-1.440687z" fill="url(#i)"/><path d="m7.4843712 12.434318v1.440687h2.8356378z" fill="url(#j)"/><path d="m13.936342 12.43363-2.83647 1.441375h2.83647z" fill="url(#k)"/><path d="m7.4710612 9.1810675 12.9039318-6.5560625-.000007 3.20275z" fill="#aa478a"/></g></g><g transform="translate(0 -1)"><path d="m12 6.1992188-3 1.8007812 2 2h-3v4l1.566406 2h10.433594v-1.800781z" fill="url(#a)" opacity=".2" stroke-width=".642857"/><path d="m11 5a2 2 0 0 0 -2 2h1a1 1 0 0 1 1-1 1 1 0 0 1 1 1v2h-1-1-1-1v4h6v-4h-1v-2a2 2 0 0 0 -2-2zm-2 5h4v2h-4z" fill="url(#b)" transform="translate(0 1)"/></g></svg>
